src/assets/icons/PencilLine.svg

<svg width="27" height="27" xmlns="http://www.w3.org/2000/svg" fill="none">
 <g>
  <title>Layer 1</title>
  <path id="svg_1" stroke-linejoin="round" stroke-linecap="round" stroke-width="1.3" stroke="currentColor" d="m10.0971,22.7188l-5.04864,0c-0.22316,0 -0.43718,-0.0887 -0.59498,-0.2465c-0.1578,-0.1578 -0.24645,-0.3718 -0.24645,-0.595l0,-4.7c0,-0.1105 0.02177,-0.2199 0.06405,-0.322c0.04229,-0.1021 0.10427,-0.1949 0.1824,-0.273l12.62152,-12.6215c0.1578,-0.15779 0.3718,-0.24644 0.5949,-0.24644c0.2232,0 0.4372,0.08865 0.595,0.24644l4.7001,4.70006c0.1578,0.1578 0.2464,0.37183 0.2464,0.59499c0,0.22316 -0.0886,0.43718 -0.2464,0.59498l-12.8679,12.86797z"/>
  <path id="svg_2" stroke-linejoin="round" stroke-linecap="round" stroke-width="1.3" stroke="currentColor" d="m14.3047,6.73145l5.89,5.89005"/>
  <path id="svg_3" stroke-linejoin="round" stroke-linecap="round" stroke-width="1.3" stroke="currentColor" d="m22.7177,22.7188l-12.6214,0l-5.83653,-5.8365"/>
 </g>

</svg>

<svg width="27" height="27" viewBox="0 0 27 27" fill="none" xmlns="http://www.w3.org/2000/svg">
<path d="M10.0971 22.7188H5.04846C4.8253 22.7188 4.61128 22.6301 4.45348 22.4723C4.29568 22.3145 4.20703 22.1005 4.20703 21.8773V17.1773C4.20703 17.0668 4.2288 16.9574 4.27108 16.8553C4.31337 16.7532 4.37535 16.6604 4.45348 16.5823L17.075 3.9608C17.2328 3.80301 17.4468 3.71436 17.6699 3.71436C17.8931 3.71436 18.1071 3.80301 18.2649 3.9608L22.965 8.66086C23.1228 8.81866 23.2114 9.03269 23.2114 9.25585C23.2114 9.47901 23.1228 9.69303 22.965 9.85083L10.0971 22.7188Z" stroke="#8C94A3" stroke-width="1.3" stroke-linecap="round" stroke-linejoin="round"/>
<path d="M14.3047 6.73145L20.1947 12.6215" stroke="#8C94A3" stroke-width="1.3" stroke-linecap="round" stroke-linejoin="round"/>
<path d="M22.7177 22.7188H10.0963L4.25977 16.8823" stroke="#8C94A3" stroke-width="1.3" stroke-linecap="round" stroke-linejoin="round"/>
</svg>
